X: 5874
T: Calum Breugach
R: strathspey
M: 4/4
K: Cmajor
A2 A<B|:G<EE>G D>EG>B|A/A/A e>A c>Ae<a|G<EE>G D>EG>B|1 c>AB<G A/A/A A<B:|2 c>AB<G A/A/A e>^f||
g>g a/g/^f/e/ d/c/B/A/ G>B|(A/B/c/d/) e>A c>Ae>^f|g>g a/g/^f/e/ d/c/B/A/ G>B|c>AB<G (3AAA A<a|
g>b e<g d<g B<G|G>g A<a B<b A<B|G>EE>G D>EG>B|c>AB<G (3AAA A<a||
|:g>ee<g d>eg>a|b>a (3aga b>aa>b|g>ee<g d>eg>a|1 b>aa<g a2 a<b:|2 b>aa<g a2 e>f||
g>g a/g/^f/e/ d/c/B/A/ G>B|(A/B/c/d/) e>A c>Ae>^f|g>g a/g/^f/e/ d/c/B/A/ G>B|c>AB<G (3AAA A<a|
g>b e<g d<g B<G|G>g A<a B<b A<B|G>EE>G D>EG>B|c>AB<G (3AAA A2||

